symbols/web/control_point_duplicate/materialsymbolsoutlined/control_point_duplicate_grad200_20px.svg

<svg xmlns="http://www.w3.org/2000/svg" height="20" width="20"><path d="M11.375 13.792h2.292v-2.646h2.645V8.854h-2.645V6.208h-2.292v2.646H8.729v2.292h2.646Zm-6.396 4.02q-2.541-.791-4.114-2.958Q-.708 12.688-.708 10T.865 5.135q1.573-2.177 4.114-2.968v2.5Q3.417 5.396 2.5 6.823T1.583 10q0 1.75.917 3.177t2.479 2.135Zm7.542.355q-1.688 0-3.177-.646-1.49-.646-2.594-1.75Q5.646 14.667 5 13.177 4.354 11.688 4.354 10T5 6.823q.646-1.49 1.75-2.594 1.104-1.104 2.594-1.75 1.489-.646 3.177-.646 1.687 0 3.177.646t2.594 1.75q1.104 1.104 1.75 2.594.646 1.489.646 3.177t-.646 3.177q-.646 1.49-1.75 2.594-1.104 1.104-2.594 1.75-1.49.646-3.177.646Zm0-8.167Zm0 5.875q2.458 0 4.167-1.719 1.708-1.718 1.708-4.156 0-2.458-1.708-4.167-1.709-1.708-4.167-1.708-2.438 0-4.156 1.708Q6.646 7.542 6.646 10q0 2.438 1.719 4.156 1.718 1.719 4.156 1.719Z"/></svg>

<svg xmlns="http://www.w3.org/2000/svg" height="20" width="20"><path d="M11.375 13.792H13.667V11.146H16.312V8.854H13.667V6.208H11.375V8.854H8.729V11.146H11.375ZM4.979 17.812Q2.438 17.021 0.865 14.854Q-0.708 12.688 -0.708 10Q-0.708 7.312 0.865 5.135Q2.438 2.958 4.979 2.167V4.667Q3.417 5.396 2.5 6.823Q1.583 8.25 1.583 10Q1.583 11.75 2.5 13.177Q3.417 14.604 4.979 15.312ZM12.521 18.167Q10.833 18.167 9.344 17.521Q7.854 16.875 6.75 15.771Q5.646 14.667 5 13.177Q4.354 11.688 4.354 10Q4.354 8.312 5 6.823Q5.646 5.333 6.75 4.229Q7.854 3.125 9.344 2.479Q10.833 1.833 12.521 1.833Q14.208 1.833 15.698 2.479Q17.188 3.125 18.292 4.229Q19.396 5.333 20.042 6.823Q20.688 8.312 20.688 10Q20.688 11.688 20.042 13.177Q19.396 14.667 18.292 15.771Q17.188 16.875 15.698 17.521Q14.208 18.167 12.521 18.167ZM12.521 10Q12.521 10 12.521 10Q12.521 10 12.521 10Q12.521 10 12.521 10Q12.521 10 12.521 10Q12.521 10 12.521 10Q12.521 10 12.521 10Q12.521 10 12.521 10Q12.521 10 12.521 10ZM12.521 15.875Q14.979 15.875 16.688 14.156Q18.396 12.438 18.396 10Q18.396 7.542 16.688 5.833Q14.979 4.125 12.521 4.125Q10.083 4.125 8.365 5.833Q6.646 7.542 6.646 10Q6.646 12.438 8.365 14.156Q10.083 15.875 12.521 15.875Z"/></svg>
